icons/sliders-16.svg

<svg xmlns="http://www.w3.org/2000/svg" width="16" height="16" viewBox="0 0 16 16"><path d="M15 2.75a.75.75 0 01-.75.75h-4a.75.75 0 010-1.5h4a.75.75 0 01.75.75zm-8.5.75v1.25a.75.75 0 001.5 0v-4a.75.75 0 00-1.5 0V2H1.75a.75.75 0 000 1.5H6.5zm1.25 5.25a.75.75 0 000-1.5h-6a.75.75 0 000 1.5h6zM15 8a.75.75 0 01-.75.75H11.5V10a.75.75 0 11-1.5 0V6a.75.75 0 011.5 0v1.25h2.75A.75.75 0 0115 8zm-9 5.25v-2a.75.75 0 00-1.5 0v1.25H1.75a.75.75 0 000 1.5H4.5v1.25a.75.75 0 001.5 0v-2zm9 0a.75.75 0 01-.75.75h-6a.75.75 0 010-1.5h6a.75.75 0 01.75.75z"/></svg>

<svg xmlns="http://www.w3.org/2000/svg" width="16" height="16" viewBox="0 0 16 16">
  <defs/>
  <path d="M15,2.75 A0.75 0.75 0 0 1 14.25,3.5 L10.25,3.5 A0.75 0.75 0 0 1 10.25,2 L14.25,2 A0.75 0.75 0 0 1 15,2.75 Z M6.5,3.5 L6.5,4.75 A0.75 0.75 0 0 0 8,4.75 L8,0.75 A0.75 0.75 0 0 0 6.5,0.75 L6.5,2 L1.75,2 A0.75 0.75 0 0 0 1.75,3.5 L6.5,3.5 Z M7.75,8.75 A0.75 0.75 0 0 0 7.75,7.25 L1.75,7.25 A0.75 0.75 0 0 0 1.75,8.75 L7.75,8.75 Z M15,8 A0.75 0.75 0 0 1 14.25,8.75 L11.5,8.75 L11.5,10 A0.75 0.75 0 1 1 10,10 L10,6 A0.75 0.75 0 0 1 11.5,6 L11.5,7.25 L14.25,7.25 A0.75 0.75 0 0 1 15,8 Z M6,13.25 L6,11.25 A0.75 0.75 0 0 0 4.5,11.25 L4.5,12.5 L1.75,12.5 A0.75 0.75 0 0 0 1.75,14 L4.5,14 L4.5,15.25 A0.75 0.75 0 0 0 6,15.25 L6,13.25 Z M15,13.25 A0.75 0.75 0 0 1 14.25,14 L8.25,14 A0.75 0.75 0 0 1 8.25,12.5 L14.25,12.5 A0.75 0.75 0 0 1 15,13.25 Z"/>
</svg>
